src/svgs/text-align-top-center.svg

<?xml version="1.0" encoding="UTF-8" standalone="no"?>
<!-- Generator: Adobe Illustrator 18.0.0, SVG Export Plug-In . SVG Version: 6.00 Build 0)  -->

<svg
   xmlns:dc="http://purl.org/dc/elements/1.1/"
   xmlns:cc="http://creativecommons.org/ns#"
   xmlns:rdf="http://www.w3.org/1999/02/22-rdf-syntax-ns#"
   xmlns:svg="http://www.w3.org/2000/svg"
   xmlns="http://www.w3.org/2000/svg"
   xmlns:sodipodi="http://sodipodi.sourceforge.net/DTD/sodipodi-0.dtd"
   xmlns:inkscape="http://www.inkscape.org/namespaces/inkscape"
   version="1.1"
   id="svg4863"
   inkscape:export-ydpi="180"
   inkscape:export-filename="/Users/saman/work_repos/base/latest/icons/text-vertical-center.png"
   inkscape:export-xdpi="180"
   sodipodi:docname="text-top.svg"
   inkscape:version="0.48.5 r10040"
   x="0px"
   y="0px"
   viewBox="0 0 20 20"
   enable-background="new 0 0 20 20"
   xml:space="preserve"
   width="100%"
   height="100%"><metadata
     id="metadata9947"><rdf:RDF><cc:Work
         rdf:about=""><dc:format>image/svg+xml</dc:format><dc:type
           rdf:resource="http://purl.org/dc/dcmitype/StillImage" /></cc:Work></rdf:RDF></metadata><defs
     id="defs9945" /><sodipodi:namedview
     id="base"
     inkscape:zoom="32"
     showgrid="true"
     borderopacity="1.0"
     inkscape:cy="7.7884078"
     bordercolor="#666666"
     showguides="false"
     inkscape:cx="12.149982"
     pagecolor="#ffffff"
     inkscape:guide-bbox="true"
     inkscape:snap-bbox="true"
     inkscape:snap-nodes="true"
     inkscape:window-x="243"
     inkscape:window-width="1608"
     inkscape:window-y="55"
     inkscape:pageopacity="0.0"
     inkscape:document-units="px"
     inkscape:current-layer="layer1"
     inkscape:pageshadow="2"
     inkscape:window-height="970"
     inkscape:window-maximized="0"><inkscape:grid
       type="xygrid"
       id="grid4886"
       empspacing="5"
       visible="true"
       enabled="true"
       snapvisiblegridlinesonly="true" /><sodipodi:guide
       id="guide6423"
       orientation="0,1"
       position="22,15" /><sodipodi:guide
       id="guide6425"
       orientation="0,1"
       position="21,5" /><sodipodi:guide
       id="guide7108"
       orientation="0,1"
       position="33,95" /></sodipodi:namedview><g
     id="layer1"
     transform="translate(0,-1032.3622)"
     inkscape:label="Layer 1"
     inkscape:groupmode="layer"><g
       id="g5863"
       transform="matrix(1.9999805,0,0,1.7500055,-539.99976,-1081.7773)" /><path
       d="M 10 4 C 9.175 4 8.5 4.675 8.5 5.5 C 8.5 6.325 9.175 7 10 7 C 10.825 7 11.5 6.325 11.5 5.5 C 11.5 4.675 10.825 4 10 4 z M 7 8 C 7 8 6 7.9999 6 9 C 6 10 7 10 7 10 L 9 10 L 9 15 C 9 15 9 16 10 16 C 11 16 11 15 11 15 L 11.03125 10 L 13 10 C 13 10 14.00005 10 14 9 C 13.99995 8 13 8 13 8 L 7 8 z "
       transform="translate(0,1032.3622)"
       id="path7050-6-8" /></g><g
     id="g7094" /></svg>

<?xml version="1.0" encoding="UTF-8" standalone="yes"?>
<svg viewBox="0 0 20 20">
  <path d="M10,4C9.2,4,8.5,4.7,8.5,5.5S9.2,7,10,7s1.5-0.7,1.5-1.5S10.8,4,10,4z M7,8c0,0-1,0-1,1c0,1,1,1,1,1h2v5c0,0,0,1,1,1
	s1-1,1-1l0-5h2c0,0,1,0,1-1s-1-1-1-1H7z"/>
</svg>
